apps/www/public/images/logos/publicity/kiki.svg

<svg width="106" height="60" viewBox="0 0 106 60" fill="none" xmlns="http://www.w3.org/2000/svg">
<path d="M10.6372 50V12.7636H20.7463V27.8182H21.2554L32.4554 12.7636H44.2372L31.6554 29.3455L44.5281 50H32.4554L24.0918 36.0364L20.7463 40.4V50H10.6372Z" fill="#7E7E7E"/>
<path d="M45.9327 50V22.0727H55.969V50H45.9327ZM50.9508 19.1636C49.5933 19.1636 48.4296 18.7152 47.4599 17.8182C46.4902 16.9212 46.0054 15.8424 46.0054 14.5818C46.0054 13.3212 46.4902 12.2424 47.4599 11.3455C48.4296 10.4485 49.5933 10 50.9508 10C52.3205 10 53.4842 10.4485 54.4418 11.3455C55.4115 12.2424 55.8963 13.3212 55.8963 14.5818C55.8963 15.8424 55.4115 16.9212 54.4418 17.8182C53.4842 18.7152 52.3205 19.1636 50.9508 19.1636Z" fill="#7E7E7E"/>
<path d="M66.9008 43.3818L66.9736 31.4545H68.2827L75.0463 22.0727H86.319L74.9736 36.6909H72.1372L66.9008 43.3818ZM57.8827 50V12.7636H67.919V50H57.8827ZM75.119 50L68.719 38.9455L75.2645 31.8182L86.6099 50H75.119Z" fill="#7E7E7E"/>
<path d="M85.7327 50V22.0727H95.769V50H85.7327ZM90.7508 19.1636C89.3933 19.1636 88.2296 18.7152 87.2599 17.8182C86.2902 16.9212 85.8054 15.8424 85.8054 14.5818C85.8054 13.3212 86.2902 12.2424 87.2599 11.3455C88.2296 10.4485 89.3933 10 90.7508 10C92.1205 10 93.2842 10.4485 94.2418 11.3455C95.2115 12.2424 95.6963 13.3212 95.6963 14.5818C95.6963 15.8424 95.2115 16.9212 94.2418 17.8182C93.2842 18.7152 92.1205 19.1636 90.7508 19.1636Z" fill="#7E7E7E"/>
</svg>

<svg xmlns="http://www.w3.org/2000/svg" width="106" height="60" fill="none" viewBox="0 0 106 60"><path fill="#7e7e7e" d="M10.637 50V12.764h10.11v15.054h.508l11.2-15.054h11.782L31.655 29.346 44.528 50H32.455l-8.363-13.964-3.346 4.364V50zM45.933 50V22.073h10.036V50zm5.018-30.836q-2.037 0-3.491-1.346t-1.455-3.236q0-1.89 1.455-3.237Q48.915 10 50.95 10q2.055 0 3.492 1.345 1.454 1.345 1.454 3.237 0 1.891-1.454 3.236-1.436 1.346-3.491 1.346M66.9 43.382l.074-11.927h1.309l6.763-9.382H86.32L74.974 36.69h-2.837zM57.884 50V12.764h10.036V50zm17.236 0-6.4-11.054 6.546-7.128L86.61 50z"/><path fill="#7e7e7e" d="M85.733 50V22.073h10.036V50zm5.018-30.836q-2.036 0-3.491-1.346t-1.455-3.236q0-1.89 1.455-3.237Q88.715 10 90.75 10q2.055 0 3.492 1.345 1.455 1.345 1.454 3.237 0 1.891-1.454 3.236-1.437 1.346-3.491 1.346"/></svg>
